X: 21771
T: LET'S SEEK THE BOWER OF ROBIN HOOD
%R: march, reel
B: W. Hamilton "Universal Tune-Book" Vol. 2 Glasgow 1846 p.177 #1
S: http://s3-eu-west-1.amazonaws.com/itma.dl.printmaterial/book_pdfs/hamiltonvol2web.pdf
Z: 2016 John Chambers <jc:trillian.mit.edu>
N: The 2nd strain has 11 bars.
M: C|
L: 1/8
K: D
% - - - - - - - - - - - - - - - - - - - - - - - - -
(ag) |\
f2d2 A2F2 | A3B A2d2 | e2d2 g2f2 | {f}e4 z2(ag) |\
f2d2 A2F2 | A3B A2d2 | B2e2 A2c2 | d4 z2 :| d2 |\
cdec A2d2 |
cdec A2f2 | g2f2 e2d2 | e4 z2AG |\
F2A2 A2Bc | d2f2 a4 | z2z2 z2fg |\
a2f2 edc2 | def2 z2fg | a2d2 edc2 | d3e d2 |]
% - - - - - - - - - - - - - - - - - - - - - - - - -

%%sep 1 1 500
%%sep 1 1 500

